X:1005
%%stretchlast 1
T:June Clover
C:Joe Buchanan's Scottish Tome - Page 593.0-594.0
I:593 0
Z:Carl Allison
C:AKA Hesitation Waltz
R:Waltz
L:1/4
M:3/4
K:D
F G |S "D"A>^G A/G/ | "A7"A d e | "D"f>=f ^f/=f/ | "A7"^f e d |
"D"A2 d | "Em"e2 d | "A7"c3- | c c d |
"A7"e>^d e/d/ | "Em"e d B | "A7"c>^B c/B/ | c c d |
"Em"e2 d | "A7"c2 B | "D"A3- | A "A7"F G |
"D"A>^G A/G/ | "A7"A d e | "D"f =f ^f/^f/ | "A7"^f e d |
"D"A2 d | "Em"e2 d | "A7"c3- | c B A |
"A7"g>f g/f/ | g f e | "D"f =f ^f/^f/ | "Bm"^f e d |
"A7"c3- | c B c | "D"d3- | d2 :|
%%newpage
T:June Clover (cont)
E | "A"c3 | c3 | c3- | c B A |
"D"F3 | "Dm"=F3 | "A"E3- | E3 |
"E7"G3- |  F E | "A"e3 | "F#m"c3 |
"B7"c3 | c A F | "E7"B3- | B3 |
"A"c3 | c3 | c3- | c B A |
"D"F3 | "Dm"=F3 | "A"E3- | E3 |
"E7"G3- |  F E | "A"e3 | "F#m"c2 A |
"B7"B c> B | "E7"F2 G | "A"Ae- | A2 :|
%%leftmargin 316 cm 
[3 | A A G | =G F G S|]
%%leftmargin 2cm 

